X: 2075
T: Bore
%R: bourr\'ee
B: Henry Playford "Apollo's Banquet", London 1687 (5th Edition)
F: https://archive.org/details/apollosbanquetco01rugg
Z: 2017 John Chambers <jc:trillian.mit.edu>
M: C|
L: 1/8
K: C
% - - - - - - - - - -
G2 |\
c2d2 e2 (fe/f/) | (gf)(ga) g2G2 |\
c2d2 e2 (fe/f/) | g6 :: (de) |\
f2e2 G2e2 | c3B A2d2 |
G2c2 B2 (EB/c/) | (dc)(de) d2(de) |\
f2e2 d2e2 | c3B A2d2 |\
G2c2 c3B | c6 |]
% - - - - - - - - - -

%%sep 1 1 500
%%sep 1 1 500

